icons/svg/music-note-off.svg

﻿<?xml version="1.0" encoding="utf-8"?>
<!DOCTYPE svg PUBLIC "-//W3C//DTD SVG 1.1//EN" "http://www.w3.org/Graphics/SVG/1.1/DTD/svg11.dtd">
<svg xmlns="http://www.w3.org/2000/svg" xmlns:xlink="http://www.w3.org/1999/xlink" version="1.1" baseProfile="full" width="24" height="24" viewBox="0 0 24.00 24.00" enable-background="new 0 0 24.00 24.00" xml:space="preserve">
	<path fill="#000000" fill-opacity="1" stroke-width="1.33333" stroke-linejoin="miter" d="M 12,3L 12,8.6758L 15,11.6758L 15,6L 19,6L 19,3L 12,3 Z M 5.27734,4.5L 4,5.7676L 10.2559,12.0254C 7.88662,12.1549 6,14.0984 6,16.5C 6,18.9853 8.01472,21 10.5,21C 12.9016,21 14.8451,19.1134 14.9746,16.7441L 19.6836,21.4531L 20.957,20.1797L 15,14.2227L 12,11.2227L 5.27734,4.5 Z "/>
</svg>

<svg xmlns="http://www.w3.org/2000/svg" version="1.1" baseProfile="full" width="24" height="24" viewBox="0 0 24.00 24.00" xml:space="preserve"><path fill="#000" fill-opacity="1" stroke-width="1.333" stroke-linejoin="miter" d="M12 3v5.676l3 3V6h4V3h-7zM5.277 4.5L4 5.768l6.256 6.257C7.886 12.155 6 14.098 6 16.5c0 2.485 2.015 4.5 4.5 4.5 2.402 0 4.345-1.887 4.475-4.256l4.71 4.71 1.272-1.274L15 14.223l-3-3L5.277 4.5z"/></svg>
